svg/u1f6a3_1f3fd.svg

<svg viewBox="0 0 128 128" xmlns="http://www.w3.org/2000/svg">
  <path id="head" d="M55.09,12.6c3.46-3.75,10.05-5.91,14.84-4.15c5.35,1.97,7.56,6.54,7.38,11.74 c-0.07,1.88-0.47,3.7-1.03,4.94c-0.07,0.15-0.59,1.22-0.68,1.57c-0.47,1.32,1.91,3.18,1.93,4.75c0.02,1.18-2.48,1.44-2.71,1.61 c-1.12,0.84-0.59,5.95-7.16,5.19c-2.52-0.29-2.75-0.42-3.54-0.49c-1.58-0.15-2.77,2.26-2.77,2.26s-2.75,5.69-6.78,3.54 c-4.6-2.45-3.35-5.66-3.35-5.66s3.44-4.37,2.1-9.16C52.05,24.17,52.87,15.02,55.09,12.6z" fill="#BA8D68"/>
  <path id="mouth" d="M73.63,35.63c-0.91-0.12-1.76-0.5-2.41-1.21c-0.71-0.78-0.01-1.35,0.86-0.77 c0.53,0.36,1.31,0.63,2.08,0.63L73.63,35.63z" fill="#5D4037"/>
  <ellipse id="eye" cx="71.43" cy="26.68" fill="#49362E" rx="1.86" ry="1.21" transform="matrix(0.2199 -0.9755 0.9755 0.2199 29.6991 90.4943)"/>
  <path id="eyebrow" d="M72.88,24.16c1.12,0.5,1.5-0.23,1.2-0.9c-0.22-0.5-0.88-0.97-2.28-0.89 c-1.32,0.08-1.95,0.74-2.36,1.15c-0.41,0.4-0.43,0.86-0.14,0.94C69.69,24.56,71.49,23.54,72.88,24.16z" fill="#613E31"/>
  <radialGradient id="shirt_2_" cx="50.528" cy="48.201" gradientTransform="matrix(1 0 0 1 0 2)" gradientUnits="userSpaceOnUse" r="17.081">
    <stop offset="0.3666" stop-color="#F78C1F"/>
    <stop offset="0.5364" stop-color="#F47F1E"/>
    <stop offset="0.8499" stop-color="#EB5D1B"/>
    <stop offset="1" stop-color="#E64A19"/>
  </radialGradient>
  <path id="shirt" d="M36.1,65.44l0.59-2.34l7.95-16.9c1.67-3.55,4.62-8.05,9.23-9.33 c0.88-0.24,1.75-0.37,2.59-0.37c1.49,0,4.17,0.41,5.49,3.14l2.38,4.94l-2.44,8.69l-4.31,12.37l-0.42,1.79L36.1,65.44z" fill="url(#shirt_2_)"/>
  <polygon id="pants" fill="#7C7C7C" points="35.14,72.23 35.14,69 36.57,63.53 57.98,66.29 73.79,69.35 73.79,72.23 "/>
  <g id="boat">
    <radialGradient id="SVGID_1_" cx="63.405" cy="42.36" gradientTransform="matrix(1 0 0 -0.4605 0 105.1468)" gradientUnits="userSpaceOnUse" r="40.4295">
      <stop offset="0.5" stop-color="#FF9800"/>
      <stop offset="0.7654" stop-color="#FA8B00"/>
      <stop offset="0.9949" stop-color="#F57C00"/>
    </radialGradient>
    <path d="M7.61,73.15H119.2c0,0-0.13,17.86-10.14,24.98h-81.9C27.16,98.13,13.96,88.22,7.61,73.15z" fill="url(#SVGID_1_)"/>
    <path d="M124.01,72.14c-0.01,2.49-2.03,4.5-4.52,4.5H8.51c-2.49,0-4.51-2.01-4.51-4.5s2.02-4.51,4.51-4.51 H119.5C121.99,67.63,124.01,69.65,124.01,72.14z" fill="#E65100"/>
  </g>
  <g id="water">
    <rect fill="#039BE5" height="30.42" width="120" x="4" y="93.58"/>
  </g>
  <path d="M124.01,85.38c-0.01,0-0.01,0.01-0.02,0.01c-2.64,0-4.84,6.03-10.66,6.03s-11.69-7.08-17.32-7.08 c-5.65,0-8.96,6.2-14.67,7.08h-2.67c-5.71-0.88-9.02-7.08-14.65-7.08c-3.78,0-8.95,6.2-14.67,7.08h-2.67 c-5.71-0.88-9.02-7.08-14.65-7.08c-5.64,0-8.95,6.2-14.67,7.08h-2.72c-4.22-0.67-7.7-6.03-10.65-6.03v14.74h0v6.19 c3.52-1.8,6.43-5.36,10.64-6.03h2.73c5.71,0.88,9.02,7.08,14.66,7.08s8.95-6.2,14.66-7.08h2.67c5.71,0.88,9.02,7.08,14.66,7.08 c5.63,0,8.94-6.2,14.66-7.08h2.67c5.71,0.88,9.02,7.08,14.66,7.08c5.63,0,8.94-6.2,14.66-7.08h2.67c4.23,0.65,7.14,4.22,10.66,6.03 v-6.19h0.01L124.01,85.38L124.01,85.38z" fill="#29B6F6"/>
  <g id="paddle">
    <polygon enable-background="new " fill="#3D3D3D" opacity="0.2" points="60.6,98.84 82.59,76.64 91.51,67.63 82.16,67.63 73.23,76.64 58.43,91.58 "/>
    <rect fill="#FFA726" height="6.65" transform="matrix(0.7037 -0.7105 0.7105 0.7037 -30.519 75.4997)" width="49" x="50.76" y="71.02"/>
    <polygon fill="#EA960F" points="90.41,63.8 81.53,63.32 91.39,53.08 96.66,57.37 "/>
    <path d="M60.8,88.84c-1.59-1.58-3.67-2.37-5.76-2.37c-2.11,0-4.22,0.81-5.82,2.43l-8.97,9.05 c-3.18,3.21-3.16,8.4,0.06,11.58c1.6,1.58,3.68,2.37,5.76,2.37c2.11,0,4.22-0.81,5.82-2.43l8.97-9.05 C64.04,97.21,64.02,92.02,60.8,88.84z" fill="#FFD54F"/>
  </g>
  <linearGradient id="arm_1_" gradientTransform="matrix(1 0 0 -1 0 128)" gradientUnits="userSpaceOnUse" x1="70.0262" x2="87.7471" y1="82.1774" y2="72.2704">
    <stop offset="0" stop-color="#A47B62"/>
    <stop offset="0.5" stop-color="#BA8D68"/>
  </linearGradient>
  <path id="arm" d="M98.73,53.62c-0.4-0.5-1.89-1.06-2.5-1.28c0.04-0.33-0.04-0.67-0.27-0.94l-1.39-1.7 c-0.17-0.21-0.4-0.33-0.64-0.4c-0.11-0.04-0.22-0.06-0.34-0.07c-0.04,0-0.08-0.01-0.13-0.01c-0.01,0-0.02,0-0.03,0 c-0.07,0-0.14,0.01-0.2,0.03c-0.13,0.02-0.25,0.06-0.37,0.13c0,0-0.01,0-0.01,0.01l-0.01,0c0,0-0.01,0-0.01,0.01l-3.46,2.13 l-0.26,0.16l-11.68-0.4l-10.75-7.46c-0.08-0.05-0.68-0.47-0.68-0.47l0,0l0,0l-4.23,6.09l0.01,0l0,0.01l12.08,8.39 c0.06,0.05,0.12,0.08,0.18,0.12c0.06,0.05,0.13,0.09,0.19,0.13c0.12,0.08,0.25,0.14,0.37,0.2c0.09,0.04,0.18,0.08,0.27,0.12 c0.1,0.04,0.21,0.07,0.31,0.1c0.12,0.04,0.25,0.08,0.38,0.1c0.03,0.01,0.06,0,0.08,0.01c0.19,0.03,0.38,0.06,0.58,0.06 c0.03,0,0.07-0.01,0.1-0.01h0.04v0.01l9.86,0.34l-0.02,0.06l0,0l0,0.02c0,0,4.69,3.24,6.94,3.54c0.42,0.1,1.13,0.26,1.76,0.26 c0.5,0,0.95-0.1,1.15-0.38c0.2-0.28,0.08-0.9,0.18-1.07c0.25-0.43,0.88-0.39,1.16-0.96c0.04-0.08,0.05-0.18,0.06-0.29 c0.02-0.32-0.07-0.75-0.13-1.03c-0.03-0.24,0.16-0.57,0.37-0.66c0.48-0.2,0.72-0.39,0.85-0.79c0.04-0.11,0.06-0.22,0.06-0.34 c0.03-0.32-0.06-0.65-0.21-0.96c-0.05-0.1-0.09-0.21-0.1-0.33c-0.04-0.34,0.07-0.71,0.34-0.9c0.2-0.14,0.37-0.48,0.36-0.86 C98.97,54.09,98.9,53.84,98.73,53.62z" fill="url(#arm_1_)"/>
  <path id="shirt_1_" d="M61.56,37.8c-1.03-0.74-2.21-1.1-3.39-1.1c-1.8,0-3.58,0.84-4.72,2.41 c-1.88,2.6-1.29,6.23,1.31,8.11l9.64,6.95l6.8-9.42L61.56,37.8z" fill="#E55D1A"/>
  <g id="hairGroup">
    <path id="hair" d="M51.39,12.72c2.03-3.2,5.04-3.71,6-3.79c0.67-1.18,3.73-5.52,11.34-2.74 c1.85,0.68,3.08,1.85,4.16,2.89c0.46,0.45,0.9,0.87,1.33,1.18c0.35,0.25,0.99,0.55,1.58,0.47c1.35-0.18,1.31-2.18,1.31-2.18 s4.47,1.79,1.62,5.9c1.43,0.98,1.83,2.77,1.82,4.38c-0.02,2.19-1.44,4.01-3.65,4.54c0,0,1.05-3.33-3.9-4.06 c-1.54-0.23-3.18-0.29-4.49-1.13c-0.5-0.32-0.94-0.76-1.41-1.11c-0.12-0.02-0.19-0.04-0.19-0.04c-2.05,0.65-0.43,5.5-2.99,7.68 c-0.51,0.43-0.81,0.18-0.81,0.18l-0.6-1.38c-0.47-0.96-0.91-1.79-1.72-1.77c-2.42,0.07-2.78,4.29-0.2,5.72 c0.26,0.14-1.25,4.64-6.95,3.56c-2.94-0.56-3.52-3.2-3.52-3.2s1.2,0.55,1.67-0.46c0.25-0.53-0.12-1.37-0.88-2.36 c-2.21-2.87-0.74-5.4-0.18-6.17C50.43,17.96,49.8,15.22,51.39,12.72z" fill="#543930"/>
    <g id="hairHighlights">
      <radialGradient id="SVGID_2_" cx="98.2253" cy="98.8308" gradientTransform="matrix(-0.9861 0.1661 -0.2391 -1.4201 177.2668 149.6394)" gradientUnits="userSpaceOnUse" r="7.5756">
        <stop offset="0.45" stop-color="#6D4C41" stop-opacity="0"/>
        <stop offset="1" stop-color="#6D4C41"/>
      </radialGradient>
      <path d="M50.7,18.82c-0.03-0.1,0.42,2.25,4.26,2.6c1.55,0.29,3,4.43,0.27,6.47 c-2.42,1.8-5.13-0.07-5.13-0.07s0.38,0.2,1.02,0.1c0.41-0.06,0.64-0.54,0.65-0.56c0.25-0.53-0.12-1.37-0.88-2.36 C48.67,22.12,50.14,19.58,50.7,18.82z" fill="url(#SVGID_2_)"/>
      <radialGradient id="SVGID_3_" cx="99.1207" cy="106.4701" gradientTransform="matrix(-0.9487 -0.3161 0.3989 -1.1972 108.8819 176.7302)" gradientUnits="userSpaceOnUse" r="7.6788">
        <stop offset="0.45" stop-color="#6D4C41" stop-opacity="0"/>
        <stop offset="1" stop-color="#6D4C41"/>
      </radialGradient>
      <path d="M51.39,12.72c1.07-1.68,2.69-2.97,4.61-3.53c0.28-0.08,0.96-0.27,1.4-0.26 c-0.36,0.77-0.5,1.64-0.32,2.6c0.01,0.03,0.15,1.43,1.09,2.71c-1.04,0.99-1.73,2.3-2.38,3.59c-0.57,1.12-1.15,2.38-0.84,3.6 c-0.72-0.18-1.9-0.19-3.06-1c-1.11-0.77-1.48-2.29-1.54-3.6C50.29,15.38,50.61,13.94,51.39,12.72z" fill="url(#SVGID_3_)"/>
      <radialGradient id="SVGID_4_" cx="90.5547" cy="109.1201" gradientTransform="matrix(-0.9425 -0.3343 0.2513 -0.7084 124.1472 124.4866)" gradientUnits="userSpaceOnUse" r="15.8045">
        <stop offset="0.45" stop-color="#6D4C41" stop-opacity="0"/>
        <stop offset="1" stop-color="#6D4C41"/>
      </radialGradient>
      <path d="M57.08,11.52c-0.46-2.51,1.22-4.41,3.43-5.48c2.59-1.25,5.61-0.81,8.22,0.14 c1.85,0.68,3.08,1.85,4.16,2.89c0.46,0.45,0.9,0.87,1.33,1.18c0.35,0.25,0.99,0.55,1.58,0.47c1.35-0.18,1.31-2.18,1.31-2.18 s4.47,1.79,1.62,5.9c1.43,0.98,1.83,2.77,1.82,4.38c-0.02,2.19-1.44,4.01-3.65,4.54c0,0,1.05-3.33-3.9-4.06 c-1.54-0.23-3.18-0.29-4.49-1.13c-1.16-0.74-1.45-1.5-2.87-1.69c-1.53-0.2-3.66-0.01-5.17-0.54 C57.41,14.87,57.09,11.57,57.08,11.52z" fill="url(#SVGID_4_)"/>
      <radialGradient id="SVGID_5_" cx="99.9711" cy="97.9069" gradientTransform="matrix(-0.9981 0.062 -0.0398 -0.6417 158.5638 82.8192)" gradientUnits="userSpaceOnUse" r="8.5082">
        <stop offset="0.45" stop-color="#6D4C41" stop-opacity="0"/>
        <stop offset="1" stop-color="#6D4C41"/>
      </radialGradient>
      <path d="M55.22,27.89c1.22-0.89,1.82-2.61,3.59-3.26c0.1,1.09,0.66,2.21,1.76,2.82 c0.26,0.14-1.25,4.64-6.95,3.56c-2.94-0.56-3.52-3.2-3.52-3.2S52.77,29.67,55.22,27.89z" fill="url(#SVGID_5_)"/>
    </g>
  </g>
</svg>

<svg viewBox="0 0 128 128" xmlns="http://www.w3.org/2000/svg">
  <defs>
    <radialGradient id="shirt_2_" cx="50.528" cy="50.201" gradientUnits="userSpaceOnUse" r="17.081">
      <stop offset="0.3666" stop-color="#F78C1F"/>
      <stop offset="0.5364" stop-color="#F47F1E"/>
      <stop offset="0.8499" stop-color="#EB5D1B"/>
      <stop offset="1" stop-color="#E64A19"/>
    </radialGradient>
    <linearGradient id="arm_1_" gradientTransform="matrix(1 0 0 -1 0 0)" gradientUnits="userSpaceOnUse" x1="70.0262" x2="87.7471" y1="-45.8226" y2="-55.7296">
      <stop offset="0" stop-color="#A47B62"/>
      <stop offset="0.5" stop-color="#BA8D68"/>
    </linearGradient>
    <radialGradient id="SVGID_1_" cx="63.405" cy="-185.971813" gradientTransform="matrix(1 0 0 -0.4605 0 0)" gradientUnits="userSpaceOnUse" r="40.4295">
      <stop offset="0.5" stop-color="#FF9800"/>
      <stop offset="0.7654" stop-color="#FA8B00"/>
      <stop offset="0.9949" stop-color="#F57C00"/>
    </radialGradient>
    <radialGradient id="SVGID_2_" cx="-51.737573" cy="-24.081835" gradientTransform="matrix(-0.9861 0.1661 -0.2391 -1.4201 0 0)" gradientUnits="userSpaceOnUse" r="7.5756">
      <stop offset="0.45" stop-color="#6D4C41" stop-opacity="0"/>
      <stop offset="1" stop-color="#6D4C41"/>
    </radialGradient>
    <radialGradient id="SVGID_3_" cx="-60.047949" cy="0.876223" gradientTransform="matrix(-0.9487 -0.3161 0.3989 -1.1972 0 0)" gradientUnits="userSpaceOnUse" r="7.6788">
      <stop offset="0.45" stop-color="#6D4C41" stop-opacity="0"/>
      <stop offset="1" stop-color="#6D4C41"/>
    </radialGradient>
    <radialGradient id="SVGID_4_" cx="-68.063196" cy="8.243988" gradientTransform="matrix(-0.9425 -0.3343 0.2513 -0.7084 0 0)" gradientUnits="userSpaceOnUse" r="15.8045">
      <stop offset="0.45" stop-color="#6D4C41" stop-opacity="0"/>
      <stop offset="1" stop-color="#6D4C41"/>
    </radialGradient>
    <radialGradient id="SVGID_5_" cx="-53.158126" cy="-45.950373" gradientTransform="matrix(-0.9981 0.062 -0.0398 -0.6417 0 0)" gradientUnits="userSpaceOnUse" r="8.5082">
      <stop offset="0.45" stop-color="#6D4C41" stop-opacity="0"/>
      <stop offset="1" stop-color="#6D4C41"/>
    </radialGradient>
  </defs>
  <path id="head" d="M55.09,12.6 C58.55,8.85 65.14,6.69 69.93,8.45 C75.28,10.42 77.49,14.99 77.31,20.19 C77.24,22.07 76.84,23.89 76.28,25.13 C76.21,25.28 75.69,26.35 75.6,26.7 C75.13,28.02 77.51,29.88 77.53,31.45 C77.55,32.63 75.05,32.89 74.82,33.06 C73.7,33.9 74.23,39.01 67.66,38.25 C65.14,37.96 64.91,37.83 64.12,37.76 C62.54,37.61 61.35,40.02 61.35,40.02 C61.35,40.02 58.6,45.71 54.57,43.56 C49.97,41.11 51.22,37.9 51.22,37.9 C51.22,37.9 54.66,33.53 53.32,28.74 C52.05,24.17 52.87,15.02 55.09,12.6 Z" fill="#BA8D68"/>
  <path id="mouth" d="M73.63,35.63 C72.72,35.51 71.87,35.13 71.22,34.42 C70.51,33.64 71.21,33.07 72.08,33.65 C72.61,34.01 73.39,34.28 74.16,34.28 L73.63,35.63 Z" fill="#5D4037"/>
  <path id="eye" d="M71.842,24.867 C72.494,25.014 72.839,25.945 72.613,26.947 C72.387,27.949 71.676,28.643 71.024,28.496 C70.372,28.349 70.027,27.417 70.253,26.415 C70.478,25.413 71.19,24.72 71.842,24.867 Z" fill="#49362E"/>
  <path id="eyebrow" d="M72.88,24.16 C74,24.66 74.38,23.93 74.08,23.26 C73.86,22.76 73.2,22.29 71.8,22.37 C70.48,22.45 69.85,23.11 69.44,23.52 C69.03,23.92 69.01,24.38 69.3,24.46 C69.69,24.56 71.49,23.54 72.88,24.16 Z" fill="#613E31"/>
  <path id="shirt" d="M36.1,65.44 L36.69,63.1 L44.64,46.2 C46.31,42.65 49.26,38.15 53.87,36.87 C54.75,36.63 55.62,36.5 56.46,36.5 C57.95,36.5 60.63,36.91 61.95,39.64 L64.33,44.58 L61.89,53.27 L57.58,65.64 L57.16,67.43 L36.1,65.44 Z" fill="url(#shirt_2_)"/>
  <path id="pants" d="M35.14,72.23 L35.14,69 L36.57,63.53 L57.98,66.29 L73.79,69.35 L73.79,72.23 Z" fill="#7C7C7C"/>
  <path d="M7.61,73.15 L119.2,73.15 C119.2,73.15 119.07,91.01 109.06,98.13 L27.16,98.13 C27.16,98.13 13.96,88.22 7.61,73.15 Z" fill="url(#SVGID_1_)"/>
  <path d="M124.01,72.14 C124,74.63 121.98,76.64 119.49,76.64 L8.51,76.64 C6.02,76.64 4,74.63 4,72.14 C4,69.65 6.02,67.63 8.51,67.63 L119.5,67.63 C121.99,67.63 124.01,69.65 124.01,72.14 Z" fill="#E65100"/>
  <path d="M4,93.58 L124,93.58 L124,124 L4,124 L4,93.58 Z" fill="#039BE5"/>
  <path d="M124.01,85.38 C124,85.38 124,85.39 123.99,85.39 C121.35,85.39 119.15,91.42 113.33,91.42 C107.51,91.42 101.64,84.34 96.01,84.34 C90.36,84.34 87.05,90.54 81.34,91.42 L78.67,91.42 C72.96,90.54 69.65,84.34 64.02,84.34 C60.24,84.34 55.07,90.54 49.35,91.42 L46.68,91.42 C40.97,90.54 37.66,84.34 32.03,84.34 C26.39,84.34 23.08,90.54 17.36,91.42 L14.64,91.42 C10.42,90.75 6.94,85.39 3.99,85.39 L3.99,100.13 L3.99,100.13 L3.99,106.32 C7.51,104.52 10.42,100.96 14.63,100.29 L17.36,100.29 C23.07,101.17 26.38,107.37 32.02,107.37 C37.66,107.37 40.97,101.17 46.68,100.29 L49.35,100.29 C55.06,101.17 58.37,107.37 64.01,107.37 C69.64,107.37 72.95,101.17 78.67,100.29 L81.34,100.29 C87.05,101.17 90.36,107.37 96,107.37 C101.63,107.37 104.94,101.17 110.66,100.29 L113.33,100.29 C117.56,100.94 120.47,104.51 123.99,106.32 L123.99,100.13 L124,100.13 L124.01,85.38 L124.01,85.38 Z" fill="#29B6F6"/>
  <path d="M60.6,98.84 L82.59,76.64 L91.51,67.63 L82.16,67.63 L73.23,76.64 L58.43,91.58 Z" fill="#3D3D3D" opacity="0.2"/>
  <path d="M55.661,89.411 L90.142,54.597 L94.867,59.277 L60.385,94.091 L55.661,89.411 Z" fill="#FFA726"/>
  <path d="M90.41,63.8 L81.53,63.32 L91.39,53.08 L96.66,57.37 Z" fill="#EA960F"/>
  <path d="M60.8,88.84 C59.21,87.26 57.13,86.47 55.04,86.47 C52.93,86.47 50.82,87.28 49.22,88.9 L40.25,97.95 C37.07,101.16 37.09,106.35 40.31,109.53 C41.91,111.11 43.99,111.9 46.07,111.9 C48.18,111.9 50.29,111.09 51.89,109.47 L60.86,100.42 C64.04,97.21 64.02,92.02 60.8,88.84 Z" fill="#FFD54F"/>
  <path id="arm" d="M98.73,53.62 C98.33,53.12 96.84,52.56 96.23,52.34 C96.27,52.01 96.19,51.67 95.96,51.4 L94.57,49.7 C94.4,49.49 94.17,49.37 93.93,49.3 C93.82,49.26 93.71,49.24 93.59,49.23 C93.55,49.23 93.51,49.22 93.46,49.22 C93.45,49.22 93.44,49.22 93.43,49.22 C93.36,49.22 93.29,49.23 93.23,49.25 C93.1,49.27 92.98,49.31 92.86,49.38 C92.86,49.38 92.85,49.38 92.85,49.39 L92.84,49.39 C92.84,49.39 92.83,49.39 92.83,49.4 L89.37,51.53 L89.11,51.69 L77.43,51.29 L66.68,43.83 C66.6,43.78 66,43.36 66,43.36 L66,43.36 L66,43.36 L61.77,49.45 L61.78,49.45 L61.78,49.46 L73.86,57.85 C73.92,57.9 73.98,57.93 74.04,57.97 C74.1,58.02 74.17,58.06 74.23,58.1 C74.35,58.18 74.48,58.24 74.6,58.3 C74.69,58.34 74.78,58.38 74.87,58.42 C74.97,58.46 75.08,58.49 75.18,58.52 C75.3,58.56 75.43,58.6 75.56,58.62 C75.59,58.63 75.62,58.62 75.64,58.63 C75.83,58.66 76.02,58.69 76.22,58.69 C76.25,58.69 76.29,58.68 76.32,58.68 L76.36,58.68 L76.36,58.69 L86.22,59.03 L86.2,59.09 L86.2,59.09 L86.2,59.11 C86.2,59.11 90.89,62.35 93.14,62.65 C93.56,62.75 94.27,62.91 94.9,62.91 C95.4,62.91 95.85,62.81 96.05,62.53 C96.25,62.25 96.13,61.63 96.23,61.46 C96.48,61.03 97.11,61.07 97.39,60.5 C97.43,60.42 97.44,60.32 97.45,60.21 C97.47,59.89 97.38,59.46 97.32,59.18 C97.29,58.94 97.48,58.61 97.69,58.52 C98.17,58.32 98.41,58.13 98.54,57.73 C98.58,57.62 98.6,57.51 98.6,57.39 C98.63,57.07 98.54,56.74 98.39,56.43 C98.34,56.33 98.3,56.22 98.29,56.1 C98.25,55.76 98.36,55.39 98.63,55.2 C98.83,55.06 99,54.72 98.99,54.34 C98.97,54.09 98.9,53.84 98.73,53.62 Z" fill="url(#arm_1_)"/>
  <path id="shirt_1_" d="M61.56,37.8 C60.53,37.06 59.35,36.7 58.17,36.7 C56.37,36.7 54.59,37.54 53.45,39.11 C51.57,41.71 52.16,45.34 54.76,47.22 L64.4,54.17 L71.2,44.75 L61.56,37.8 Z" fill="#E55D1A"/>
  <path id="hair" d="M51.39,12.72 C53.42,9.52 56.43,9.01 57.39,8.93 C58.06,7.75 61.12,3.41 68.73,6.19 C70.58,6.87 71.81,8.04 72.89,9.08 C73.35,9.53 73.79,9.95 74.22,10.26 C74.57,10.51 75.21,10.81 75.8,10.73 C77.15,10.55 77.11,8.55 77.11,8.55 C77.11,8.55 81.58,10.34 78.73,14.45 C80.16,15.43 80.56,17.22 80.55,18.83 C80.53,21.02 79.11,22.84 76.9,23.37 C76.9,23.37 77.95,20.04 73,19.31 C71.46,19.08 69.82,19.02 68.51,18.18 C68.01,17.86 67.57,17.42 67.1,17.07 C66.98,17.05 66.91,17.03 66.91,17.03 C64.86,17.68 66.48,22.53 63.92,24.71 C63.41,25.14 63.11,24.89 63.11,24.89 L62.51,23.51 C62.04,22.55 61.6,21.72 60.79,21.74 C58.37,21.81 58.01,26.03 60.59,27.46 C60.85,27.6 59.34,32.1 53.64,31.02 C50.7,30.46 50.12,27.82 50.12,27.82 C50.12,27.82 51.32,28.37 51.79,27.36 C52.04,26.83 51.67,25.99 50.91,25 C48.7,22.13 50.17,19.6 50.73,18.83 C50.43,17.96 49.8,15.22 51.39,12.72 Z" fill="#543930"/>
  <path d="M50.7,18.82 C50.67,18.72 51.12,21.07 54.96,21.42 C56.51,21.71 57.96,25.85 55.23,27.89 C52.81,29.69 50.1,27.82 50.1,27.82 C50.1,27.82 50.48,28.02 51.12,27.92 C51.53,27.86 51.76,27.38 51.77,27.36 C52.02,26.83 51.65,25.99 50.89,25 C48.67,22.12 50.14,19.58 50.7,18.82 Z" fill="url(#SVGID_2_)"/>
  <path d="M51.39,12.72 C52.46,11.04 54.08,9.75 56,9.19 C56.28,9.11 56.96,8.92 57.4,8.93 C57.04,9.7 56.9,10.57 57.08,11.53 C57.09,11.56 57.23,12.96 58.17,14.24 C57.13,15.23 56.44,16.54 55.79,17.83 C55.22,18.95 54.64,20.21 54.95,21.43 C54.23,21.25 53.05,21.24 51.89,20.43 C50.78,19.66 50.41,18.14 50.35,16.83 C50.29,15.38 50.61,13.94 51.39,12.72 Z" fill="url(#SVGID_3_)"/>
  <path d="M57.08,11.52 C56.62,9.01 58.3,7.11 60.51,6.04 C63.1,4.79 66.12,5.23 68.73,6.18 C70.58,6.86 71.81,8.03 72.89,9.07 C73.35,9.52 73.79,9.94 74.22,10.25 C74.57,10.5 75.21,10.8 75.8,10.72 C77.15,10.54 77.11,8.54 77.11,8.54 C77.11,8.54 81.58,10.33 78.73,14.44 C80.16,15.42 80.56,17.21 80.55,18.82 C80.53,21.01 79.11,22.83 76.9,23.36 C76.9,23.36 77.95,20.03 73,19.3 C71.46,19.07 69.82,19.01 68.51,18.17 C67.35,17.43 67.06,16.67 65.64,16.48 C64.11,16.28 61.98,16.47 60.47,15.94 C57.41,14.87 57.09,11.57 57.08,11.52 Z" fill="url(#SVGID_4_)"/>
  <path d="M55.22,27.89 C56.44,27 57.04,25.28 58.81,24.63 C58.91,25.72 59.47,26.84 60.57,27.45 C60.83,27.59 59.32,32.09 53.62,31.01 C50.68,30.45 50.1,27.81 50.1,27.81 C50.1,27.81 52.77,29.67 55.22,27.89 Z" fill="url(#SVGID_5_)"/>
</svg>
